X:94
T:The Igoes of Pakahake Street
R:hornpipe
C: 2000, 2010 L.E. McCullough 
M:4/4 
L:1/8
K:D
z6 (3ABc |:dAGA eAGA|fAaA eAGA|fAaA gAgf|gfed cABc|
dAGA eAGA|fAaA eAGA|fAaA gAef|
[1 (3gfe (3cBA d2 (3ABc:|2 (3gfe (3cBA d2 de|]
|:fAde f2 ef|gAef g2fg|aAg2 fAf2|edcB agfe|fAde f2ef|
gAef g2fg|a2 fa gfef|1 (3gfe (3cBA d2 de:|2 (3gfe (3cBA d2 (3ABc|]
 


